images/icons/facebook.svg

<svg class="si64d0ec7d1139f1000f03ed0168098820e3c84d34a15da220d1d8b0911691413649610 svgIcon_1J7 original_2bh facebook_Iy8 filled_Qbi" viewBox="0 0 32 32" style="border-radius:50%"><path class="outer_bDW" d="M32 0H0V32H32V0ZM16.9133 25H13.6383V16.0044H12V13.1936H13.6383V10.9374H13.6443C13.7014 8.9864 14.3604 7.129 17.5674 7.0126V7H19.6171V9.8108H17.9447C17.3379 9.8108 16.9133 10.5002 16.9133 11.1568V13.1936H19.8561L19.3702 16.0044H16.9133V25Z"></path><path d="M16,31 C24.2842712,31 31,24.2842712 31,16 C31,7.71572875 24.2842712,1 16,1 C7.71572875,1 1,7.71572875 1,16 C1,24.2842712 7.71572875,31 16,31 Z M16,32 C7.163444,32 0,24.836556 0,16 C0,7.163444 7.163444,0 16,0 C24.836556,0 32,7.163444 32,16 C32,24.836556 24.836556,32 16,32 Z" class="border_2yy"></path><path class="logo_2gS" d="M13.6383 25H16.9133V16.0044H19.3702L19.8561 13.1936H16.9133V11.1568C16.9133 10.5002 17.3379 9.8108 17.9447 9.8108H19.6171V7H17.5674V7.0126C14.3604 7.129 13.7014 8.9864 13.6443 10.9374H13.6383V13.1936H12V16.0044H13.6383V25Z" style="color:#fff;fill:#fff"></path></svg>

<svg class="si64d0ec7d1139f1000f03ed0168098820e3c84d34a15da220d1d8b0911691413649610 svgIcon_1J7 original_2bh facebook_Iy8 filled_Qbi" viewBox="0 0 32 32" style="border-radius:50%"><path class="outer_bDW" d="M32 0H0v32h32V0zM16.913 25h-3.275v-8.996H12v-2.81h1.638v-2.257h.006c.057-1.95.716-3.808 3.923-3.924V7h2.05v2.81h-1.672c-.607 0-1.032.69-1.032 1.347v2.037h2.943l-.486 2.81h-2.457V25z"/><path d="M16 31c8.284 0 15-6.716 15-15 0-8.284-6.716-15-15-15C7.716 1 1 7.716 1 16c0 8.284 6.716 15 15 15zm0 1C7.163 32 0 24.837 0 16S7.163 0 16 0s16 7.163 16 16-7.163 16-16 16z" class="border_2yy"/><path class="logo_2gS" d="M13.638 25h3.275v-8.996h2.457l.486-2.81h-2.943v-2.037c0-.657.425-1.346 1.032-1.346h1.672V7h-2.05v.013c-3.207.116-3.866 1.973-3.923 3.924h-.006v2.257H12v2.81h1.638V25z" color="#fff" fill="#fff"/></svg>
